!!!COM:	Bach, Johann Sebastian
!!!CDT:	1685/02/21/-1750/07/28/
!!!OTL@@DE:	Herzliebester Jesu, was hast du verbrochen
!!!SCT:	BWV 244/46
!!!PC#:	105
!!!AGN:	chorale
**kern	**kern	**kern	**kern
*ICvox	*ICvox	*ICvox	*ICvox
*Ibass	*Itenor	*Ialto	*Isoprn
*I"Bass	*I"Tenor	*I"Alto	*I"Soprano
*clefF4	*clefGv2	*clefG2	*clefG2
*k[f#c#]	*k[f#c#]	*k[f#c#]	*k[f#c#]
*b:	*b:	*b:	*b:
*M4/4	*M4/4	*M4/4	*M4/4
*met(c)	*met(c)	*met(c)	*met(c)
*MM100	*MM100	*MM100	*MM100
4D#	4f#	4a	4b
=1	=1	=1	=1
4E	4e	4g	4b
4E#	4d	4g#	4b
4F#	4c#	4f#	4a#
4F#	4A#	4c#	4f#
=2	=2	=2	=2
4G#	4e	4B	4b
4A#	4e	4f#	4cc#
4B	8dL	4f#	4dd
.	8eJ	.	.
4B	4f#	4b	4dd
=3	=3	=3	=3
4A#	4g	4cc#	4ee
4B	4f#	4b	4dd
4F#;	4f#;	4a#;	4cc#;
4F#	4A#	4f#	4cc#
=4	=4	=4	=4
4B	4B	4f#	4dd
4AnX	4c#	4anX	4ee
4D	8dL	4a	8ff#L
.	8c#J	.	8eeJ
8GL	4B	8bL	4dd
8F#J	.	8aJ	.
=5	=5	=5	=5
8EL	4B	8gL	4gg
8F#J	.	8aJ	.
8GL	4e	4b	4gg
8AJ	.	.	.
4B	8dL	4b	8ff#L
.	8c#J	.	8eeJ
8AL	4d	4b	4ff#
8G#J	.	.	.
=6	=6	=6	=6
2A	4d	8eL	2ee
.	.	8f#J	.
.	4c#	4gnX	.
4D;	4d;	4f#;	4dd;
4D	4F#	4b	4dd
=7	=7	=7	=7
8EL	8G#L	4e	4cc#
8F#J	8A#J	.	.
4G	4B	4d	4b
4C#	4E	4e	8anXL
.	.	.	8gnXJ
4D	4A	8dL	8f#L
.	.	8eJ	8gJ
=8	=8	=8	=8
8dL	4d	4f#	4a
8c	.	.	.
8B	4d	4f#	4a
8AJ	.	.	.
8GL	8dL	4g	4b
8F#	8eJ	.	.
8E	4f#	4f#	4a
8D#J	.	.	.
=9	=9	=9	=9
2E	2B	8f#L	2g
.	.	8d#J	.
.	.	4e	.
4BB;	4B;	4d;	4f#;
4BB	4dnX	4b	4ff#
=10	=10	=10	=10
4C#	4c#	8bL	4ee
.	.	8a#J	.
8DL	4F#	[4b	4dd
8EJ	.	.	.
2F#	4.f#	8bL]	2cc#
.	.	8g#J	.
.	.	4a#	.
.	8e	.	.
=11	=11	=11	=11
2.BB;	2.d#;	2.f#;	2.b;
==	==	==	==
*-	*-	*-	*-
!!!hum2abc: -Q ''
!!!title: @{PC#}. @{OTL@@DE}
!!!YOR1: 371 vierstimmige Choralges&auml;nge von Johann Sebastian Bach, 
!!!YOR2: 4th ed. by Alfred D&ouml;rffel (Leipzig: Breitkopf und H&auml;rtel, 
!!!YOR2: c.1875). 178 pp. Plate "V.A.10".  reprint: J.S. Bach, 371 Four-Part 
!!!YOR4: Chorales (New York: Associated Music Publishers, Inc., c.1940).
!!!SMS: B&H, 4th ed, Alfred D&ouml;rffel, c.1875, plate V.A.10
!!!EED:  Craig Stuart Sapp
!!!EEV:  2009/05/22
